source/img/logo.svg

<svg viewBox="0 0 175 21" fill="none" xmlns="http://www.w3.org/2000/svg">
<path d="M52.2836 9.01091H49.4072V14.3055C49.4072 15.68 50.4 15.7055 52.2836 15.6036V18.5818C47.6763 19.0909 46.1236 17.7418 46.1236 14.3055V9.01091H43.9091V5.85455H46.1236V2.64727L49.4072 1.65455V5.85455H52.2836V9.01091ZM64.4763 5.85455H67.76V18.5818H64.4763V17.08C63.56 18.2255 62.1854 18.9382 60.3272 18.9382C56.9418 18.9382 54.1418 16.0109 54.1418 12.2182C54.1418 8.42546 56.9418 5.49818 60.3272 5.49818C62.1854 5.49818 63.56 6.21091 64.4763 7.35636V5.85455ZM60.9381 15.8073C62.9745 15.8073 64.4763 14.3564 64.4763 12.2182C64.4763 10.08 62.9745 8.62909 60.9381 8.62909C58.9272 8.62909 57.4254 10.08 57.4254 12.2182C57.4254 14.3564 58.9272 15.8073 60.9381 15.8073ZM72.3672 4.32727C71.2727 4.32727 70.3563 3.41091 70.3563 2.31636C70.3563 1.22182 71.2727 0.28 72.3672 0.28C73.4872 0.28 74.4036 1.22182 74.4036 2.31636C74.4036 3.41091 73.4872 4.32727 72.3672 4.32727ZM70.7381 18.5818V5.85455H74.0218V18.5818H70.7381ZM77.0254 18.5818V0H80.3091V18.5818H77.0254ZM97.6436 5.85455H101.131L97.0836 18.5818H93.9527L91.6109 10.8691L89.2691 18.5818H86.1381L82.0909 5.85455H85.5781L87.7418 13.6691L90.0581 5.85455H93.1636L95.48 13.6945L97.6436 5.85455ZM104.542 4.32727C103.447 4.32727 102.531 3.41091 102.531 2.31636C102.531 1.22182 103.447 0.28 104.542 0.28C105.662 0.28 106.578 1.22182 106.578 2.31636C106.578 3.41091 105.662 4.32727 104.542 4.32727ZM102.913 18.5818V5.85455H106.196V18.5818H102.913ZM116.276 5.49818C118.975 5.49818 121.087 7.38182 121.087 10.7673V18.5818H117.804V11.1745C117.804 9.44364 116.76 8.55273 115.284 8.55273C113.68 8.55273 112.484 9.49455 112.484 11.7091V18.5818H109.2V5.85455H112.484V7.28C113.247 6.13455 114.571 5.49818 116.276 5.49818ZM133.535 0.763636H136.818V18.5818H133.535V17.08C132.618 18.2509 131.269 18.9382 129.411 18.9382C126 18.9382 123.2 16.0109 123.2 12.2182C123.2 8.42546 126 5.49818 129.411 5.49818C131.269 5.49818 132.618 6.18546 133.535 7.35636V0.763636ZM130.022 15.8073C132.033 15.8073 133.535 14.3564 133.535 12.2182C133.535 10.08 132.033 8.62909 130.022 8.62909C127.985 8.62909 126.484 10.08 126.484 12.2182C126.484 14.3564 127.985 15.8073 130.022 15.8073ZM145.88 18.9382C142.011 18.9382 139.16 16.0109 139.16 12.2182C139.16 8.42546 142.011 5.49818 145.88 5.49818C148.375 5.49818 150.538 6.82182 151.582 8.78182L148.756 10.4364C148.247 9.39273 147.153 8.73091 145.854 8.73091C143.895 8.73091 142.444 10.1818 142.444 12.2182C142.444 14.2291 143.895 15.68 145.854 15.68C147.178 15.68 148.273 15.0436 148.782 14L151.633 15.6291C150.538 17.6145 148.375 18.9382 145.88 18.9382ZM156.494 9.46909C156.494 11.3527 163.062 10.1818 163.062 14.8655C163.062 17.6145 160.669 18.9382 157.945 18.9382C155.4 18.9382 153.516 17.8691 152.6 15.9091L155.451 14.3055C155.807 15.3491 156.673 15.96 157.945 15.96C158.989 15.96 159.702 15.6036 159.702 14.8655C159.702 13.0073 153.134 14.0255 153.134 9.54545C153.134 6.94909 155.349 5.49818 157.971 5.49818C160.033 5.49818 161.814 6.44 162.807 8.19636L160.007 9.72364C159.625 8.90909 158.913 8.42546 157.971 8.42546C157.156 8.42546 156.494 8.78182 156.494 9.46909ZM168.331 9.46909C168.331 11.3527 174.898 10.1818 174.898 14.8655C174.898 17.6145 172.505 18.9382 169.782 18.9382C167.236 18.9382 165.353 17.8691 164.436 15.9091L167.287 14.3055C167.644 15.3491 168.509 15.96 169.782 15.96C170.825 15.96 171.538 15.6036 171.538 14.8655C171.538 13.0073 164.971 14.0255 164.971 9.54545C164.971 6.94909 167.185 5.49818 169.807 5.49818C171.869 5.49818 173.651 6.44 174.644 8.19636L171.844 9.72364C171.462 8.90909 170.749 8.42546 169.807 8.42546C168.993 8.42546 168.331 8.78182 168.331 9.46909Z" fill="#2D3748"/>
<path fill-rule="evenodd" clip-rule="evenodd" d="M8.59091 7.06365C9.73636 2.48183 12.6 0.190918 17.1818 0.190918C24.0545 0.190918 24.9136 5.34546 28.35 6.20455C30.6409 6.77728 32.6455 5.91819 34.3636 3.62728C33.2182 8.2091 30.3545 10.5 25.7727 10.5C18.9 10.5 18.0409 5.34546 14.6045 4.48637C12.3136 3.91365 10.3091 4.77274 8.59091 7.06365ZM0 17.3727C1.14545 12.7909 4.00909 10.5 8.59091 10.5C15.4636 10.5 16.3227 15.6546 19.7591 16.5136C22.05 17.0864 24.0545 16.2273 25.7727 13.9364C24.6273 18.5182 21.7636 20.8091 17.1818 20.8091C10.3091 20.8091 9.45 15.6546 6.01364 14.7955C3.72273 14.2227 1.71818 15.0818 0 17.3727Z" fill="url(#paint0_linear)"/>
<defs>
<linearGradient id="paint0_linear" x1="-1.42967e-07" y1="6.78874" x2="28.542" y2="23.914" gradientUnits="userSpaceOnUse">
<stop stop-color="#2383AE"/>
<stop offset="1" stop-color="#6DD7B9"/>
</linearGradient>
</defs>
</svg>

<svg viewBox="0 0 175 21" xmlns="http://www.w3.org/2000/svg"><path d="M52.284 9.01h-2.877v5.296c0 1.374.993 1.4 2.877 1.298v2.978c-4.608.509-6.16-.84-6.16-4.277V9.012h-2.215V5.855h2.215V2.647l3.283-.992v4.2h2.877V9.01zm12.192-3.155h3.284v12.727h-3.284V17.08c-.916 1.146-2.29 1.858-4.149 1.858-3.385 0-6.185-2.927-6.185-6.72 0-3.793 2.8-6.72 6.185-6.72 1.858 0 3.233.713 4.15 1.858V5.855zm-3.538 9.952c2.036 0 3.538-1.45 3.538-3.589 0-2.138-1.502-3.589-3.538-3.589-2.01 0-3.513 1.451-3.513 3.59 0 2.137 1.502 3.588 3.513 3.588zm11.43-11.48a2.032 2.032 0 0 1-2.012-2.01c0-1.095.917-2.037 2.011-2.037 1.12 0 2.037.942 2.037 2.036 0 1.095-.917 2.011-2.037 2.011zm-1.63 14.255V5.855h3.284v12.727h-3.284zm6.287 0V0h3.284v18.582h-3.284zM97.644 5.855h3.487l-4.047 12.727h-3.131l-2.342-7.713-2.342 7.713h-3.13L82.09 5.855h3.487l2.164 7.814 2.316-7.814h3.106l2.316 7.84 2.164-7.84zm6.898-1.528a2.032 2.032 0 0 1-2.011-2.01c0-1.095.916-2.037 2.011-2.037 1.12 0 2.036.942 2.036 2.036 0 1.095-.916 2.011-2.036 2.011zm-1.629 14.255V5.855h3.283v12.727h-3.283zm13.363-13.084c2.699 0 4.811 1.884 4.811 5.27v7.814h-3.283v-7.408c0-1.73-1.044-2.621-2.52-2.621-1.604 0-2.8.942-2.8 3.156v6.873H109.2V5.855h3.284V7.28c.763-1.145 2.087-1.782 3.792-1.782zM133.535.764h3.283v17.818h-3.283V17.08c-.917 1.17-2.266 1.858-4.124 1.858-3.411 0-6.211-2.927-6.211-6.72 0-3.793 2.8-6.72 6.211-6.72 1.858 0 3.207.687 4.124 1.858V.764zm-3.513 15.043c2.011 0 3.513-1.45 3.513-3.589 0-2.138-1.502-3.589-3.513-3.589-2.037 0-3.538 1.451-3.538 3.59 0 2.137 1.501 3.588 3.538 3.588zm15.858 3.131c-3.869 0-6.72-2.927-6.72-6.72 0-3.793 2.851-6.72 6.72-6.72 2.495 0 4.658 1.324 5.702 3.284l-2.826 1.654c-.509-1.043-1.603-1.705-2.902-1.705-1.959 0-3.41 1.45-3.41 3.487 0 2.011 1.451 3.462 3.41 3.462 1.324 0 2.419-.636 2.928-1.68l2.851 1.63c-1.095 1.984-3.258 3.308-5.753 3.308zm10.614-9.469c0 1.884 6.568.713 6.568 5.397 0 2.748-2.393 4.072-5.117 4.072-2.545 0-4.429-1.069-5.345-3.029l2.851-1.604c.356 1.044 1.222 1.655 2.494 1.655 1.044 0 1.757-.356 1.757-1.095 0-1.858-6.568-.84-6.568-5.32 0-2.596 2.215-4.047 4.837-4.047 2.062 0 3.843.942 4.836 2.698l-2.8 1.528c-.382-.815-1.094-1.299-2.036-1.299-.815 0-1.477.357-1.477 1.044zm11.837 0c0 1.884 6.567.713 6.567 5.397 0 2.748-2.393 4.072-5.116 4.072-2.546 0-4.429-1.069-5.346-3.029l2.851-1.604c.357 1.044 1.222 1.655 2.495 1.655 1.043 0 1.756-.356 1.756-1.095 0-1.858-6.567-.84-6.567-5.32 0-2.596 2.214-4.047 4.836-4.047 2.062 0 3.844.942 4.837 2.698l-2.8 1.528c-.382-.815-1.095-1.299-2.037-1.299-.814 0-1.476.357-1.476 1.044z" fill="#2D3748"/><path d="M8.59 7.064C9.737 2.482 12.6.19 17.183.19c6.873 0 7.732 5.154 11.168 6.014 2.29.572 4.295-.287 6.014-2.578-1.146 4.582-4.01 6.873-8.591 6.873-6.873 0-7.732-5.155-11.168-6.014-2.291-.572-4.296.287-6.014 2.578zM0 17.373C1.145 12.79 4.01 10.5 8.59 10.5c6.874 0 7.733 5.155 11.17 6.014 2.29.572 4.294-.287 6.013-2.578-1.146 4.582-4.01 6.873-8.591 6.873-6.873 0-7.732-5.154-11.168-6.014-2.291-.572-4.296.287-6.014 2.578z" fill="url(#a)"/><defs><linearGradient id="a" y1="6.789" x2="28.542" y2="23.914" gradientUnits="userSpaceOnUse"><stop stop-color="#2383AE"/><stop offset="1" stop-color="#6DD7B9"/></linearGradient></defs></svg>
